X:29
T:The Rights of Man
C:James Hill
M:4/4
L:1/8
R:hornpipe
K:Emin
GA | B2A2 G2F2 | EFGA B2ef | gfed edBd | cBAG A2GA |
BcAB GAFG | EFGA B2ef | gfed Bgfg | e2 E2 E2 GA |
BcAB GAFG | EFGA B2ef | gfed edBd | cBAG A2GA |
(3BcB (3ABA (3GAG (3FGF | EFGA B2ef | gfed Bgfg | e2 E2 E2 |:
ga | babg efga | babg egfe | d^cde fefg | afdf a2gf |
edef gfga | (3bag (3agf gfef | gfed Bgfg | e2 E2 E2 :|
